X:296
T:Lord Breadalbane's March
B:Songs of Scotland Without Words, J T Surenne
N:Transposed from another key (no shaps or flats)
Z:Nigel Gatherer <gatherer@argonet.co.uk>
M:6/8
L:1/8
K:D
d|A>BA f>ed|B>AB d>BG|A>BA f>ed|B>ee e2 d|A>BA f>ed|B>AB d<BG|
A>BA f>ed|B>ee e2||d|e>fe a>fe|f>ef f>ed|e>fe a<fe|
e>fe e2 d|e>fe a<fe|f>ef f>ed|a>fe f>ed|Bee e2|]
<end>
<start>
